src/assets/svg-icons/user-icon-light.svg

<svg width="20" height="20" viewBox="0 0 20 20" fill="none" xmlns="http://www.w3.org/2000/svg">
<path d="M12.9938 2.52266C12.2336 1.70195 11.1719 1.25 10 1.25C8.82191 1.25 7.75668 1.69922 7.00004 2.51484C6.23519 3.33945 5.86254 4.46016 5.95004 5.67031C6.12348 8.05781 7.94027 10 10 10C12.0598 10 13.8735 8.0582 14.0496 5.67109C14.1383 4.47187 13.7633 3.35352 12.9938 2.52266Z" fill="#CAC9C9"/>
<path d="M16.8747 18.749H3.12473C2.94476 18.7514 2.76653 18.7136 2.603 18.6383C2.43948 18.5631 2.29478 18.4524 2.17942 18.3143C1.92552 18.0107 1.82317 17.5963 1.89895 17.1771C2.22864 15.3482 3.25755 13.8119 4.87473 12.7334C6.31145 11.776 8.13137 11.249 9.99973 11.249C11.8681 11.249 13.688 11.7764 15.1247 12.7334C16.7419 13.8115 17.7708 15.3478 18.1005 17.1768C18.1763 17.5959 18.0739 18.0103 17.82 18.3139C17.7047 18.4521 17.56 18.5629 17.3965 18.6382C17.233 18.7134 17.0547 18.7513 16.8747 18.749Z" fill="#CAC9C9"/>
</svg>

<svg xmlns="http://www.w3.org/2000/svg" width="20" height="20" fill="none" viewBox="0 0 20 20"><path fill="#CAC9C9" d="M12.994 2.523C12.234 1.702 11.172 1.25 10 1.25c-1.178 0-2.243.45-3 1.265-.765.824-1.137 1.945-1.05 3.155C6.123 8.058 7.94 10 10 10c2.06 0 3.873-1.942 4.05-4.329.088-1.2-.287-2.317-1.056-3.148Zm3.881 16.226H3.125a1.209 1.209 0 0 1-.946-.435 1.38 1.38 0 0 1-.28-1.137c.33-1.829 1.359-3.365 2.976-4.444C6.31 11.776 8.13 11.25 10 11.25c1.868 0 3.688.527 5.125 1.484 1.617 1.079 2.646 2.615 2.976 4.444a1.38 1.38 0 0 1-.281 1.137 1.212 1.212 0 0 1-.945.435Z"/></svg>
